X:1
T:Title
%%score { 1 | ( 2 3 ) }
L:1/8
M:4/4
K:Eb
V:1 treble nm="Grand Piano"
V:2 bass 
V:3 bass 
V:1
 z4 z2[Q:1/4=100] E>F | G2 G2 A>A G>F | B6 G>[FA] | [GB]2 [EG]2 [Ae]2 .[CAc]2 | %4
[M:3/4] [Ac]2 [GB]4 |[M:1/4] E>F |[M:4/4] G2 G2 A>A G>F | B6 B>c | d2 F2 [=EG]2 [_E=A]2 | %9
[M:3/4] [DB]6 |[M:1/4] [EG]>[FA] |[M:4/4] [GB]2 [GB]2 [Ac]2 [Ae]2 | [GB]6 [EG]>[FA] | %13
 [GB]2 [Gc]2 [GB]2 [EG]2 |[M:3/4] [DF]6 |[M:1/4] [EG]>[FA] |[M:4/4] [GB]2 [GB]4 [Ac]>[Ad] | %17
[M:5/4] [Ge]2 [Ge]6 E>F |[M:4/4] G2 [EB]2 [DG]2 [DF]2 |[M:3/4] [B,E]6 |] %20
V:2
 z4 z2 [E,G,]>[E,A,E] | [E,B,E]2 [E,B,E]2 [F,B,D]>[F,B,D] [B,D]>[A,B,D] | [G,B,E]6 [E,B,E]>[E,B,] | %3
 [E,E]2 [E,B,]2 [E,C]2 z D |[M:3/4] [E,E]2 [E,E]4 |[M:1/4] [E,G,]>[E,A,E] | %6
[M:4/4] [E,B,E]2 [E,B,E]2 [F,B,D]>[F,B,D] [B,D]>[A,B,D] | [G,B,E]6 [_G,B,=E]>[G,B,E] | %8
 [F,B,F]2 [F,B,D]2 [C,C]2 [F,C]2 |[M:3/4] [B,,B,]6 |[M:1/4] [E,B,]>[E,B,] | %11
[M:4/4] [E,E]2 [E,E]2 [A,E]2 [A,C]2 | [E,E]6 [E,B,]>[E,B,] | [E,E]2 [E,E]2 [E,E]2 [E,B,]2 | %14
[M:3/4] [B,,B,]6 |[M:1/4] [E,B,]>[E,B,] |[M:4/4] [E,E]2 [E,E]4 [A,E]>[F,B,] | %17
[M:5/4] [E,B,]2 [E,B,]6 [G,B,]>[A,=B,E] |[M:4/4] [B,E]2 [B,,G,]2 [B,,B,]2 [B,,A,]2 | %19
[M:3/4] [E,G,]6 |] %20
V:3
 x8 | x8 | x8 | z4 z2 E,2 |[M:3/4] x6 |[M:1/4] x2 |[M:4/4] x8 | x8 | x8 |[M:3/4] x6 |[M:1/4] x2 | %11
[M:4/4] x8 | x8 | x8 |[M:3/4] x6 |[M:1/4] x2 |[M:4/4] x8 |[M:5/4] x10 |[M:4/4] x8 |[M:3/4] x6 |] %20

